X:1
T:Title
%%score { ( 1 3 ) | 2 }
L:1/8
Q:1/4=110
M:4/4
K:Eb
V:1 treble nm="Grand Piano"
V:3 treble 
V:2 bass 
V:1
 [GB]2 G2 G2 B2 | E2 E2 E4 | [DF]3 [EG] [DF]2 E-[CEF] | [B,EG]2 [A,DF]2 [G,E]4 | [EGB]2 G2 G2 B2 | %5
w: D.~W.~Henderson * * *|||||
 E2 E2 E4 | [DF]3 [EG] [DF]2 E-[CEF] | [B,EG]2 [A,DF]2 [G,E]4 | [Ge]2 [GB]2 [GB]4 | G2 E2 E4 | %10
w: |||||
 [DF]3 [EG] [DF]2 E-[CEF] | [B,EG]2 [A,DF]2 [G,E]4 |] %12
w: ||
V:2
 [E,E]2 [E,B,E]2 [E,B,E]2 [E,G,E]2 | [E,G,B,]2 [E,A,C]2 [E,G,B,]4 | %2
 [B,,B,]3 [B,,B,] [B,,B,]2 G,,A,, | B,,2 B,,2 E,4 | E,2 [E,B,E]2 [E,B,E]2 [E,G,E]2 | %5
 [E,G,B,]2 [E,A,C]2 [E,G,B,]4 | [B,,B,]3 [B,,B,] [B,,B,]2 G,,A,, | B,,2 B,,2 E,4 | %8
 [E,B,]2 [E,E]2 [E,E]4 | [E,B,E]2 [E,G,B,]2 [E,G,B,]4 | [B,,B,]3 [B,,B,] [B,,B,]2 G,,A,, | %11
 B,,2 B,,2 E,4 |] %12
V:3
 x8 | x8 | z4 z2 .B,2 | x8 | x8 | x8 | z4 z2 .B,2 | x8 | x8 | x8 | z4 z2 .B,2 | x8 |] %12

